; generated by PrusaSlicer 2.6.1+MacOS-arm64 on 2023-09-23 at 16:57:09 UTC


;
;
; 

; external perimeters extrusion width = 0.45mm
; perimeters extrusion width = 0.45mm
; infill extrusion width = 0.45mm
; solid infill extrusion width = 0.45mm
; top infill extrusion width = 0.40mm
; first layer extrusion width = 0.42mm

M73 P0 R26
M73 Q0 S26
M201 X1000 Y1000 Z200 E5000 ; sets maximum accelerations, mm/sec^2
M203 X200 Y200 Z12 E120 ; sets maximum feedrates, mm / sec
M204 S1250 T1250 ; sets acceleration (S) and retract acceleration (R), mm/sec^2
M205 X8.00 Y8.00 Z0.40 E4.50 ; sets the jerk limits, mm/sec
M205 S0 T0 ; sets the minimum extruding and travel feed rate, mm/sec
;TYPE:Custom
M862.3 P "MK3S" ; printer model check
M862.1 P0.4 ; nozzle diameter check
M115 U3.13.0 ; tell printer latest fw version
G90 ; use absolute coordinates
M83 ; extruder relative mode
M104 S240 ; set extruder temp
M140 S85 ; set bed temp
M190 S85 ; wait for bed temp
M109 S240 ; wait for extruder temp
G28 W ; home all without mesh bed level
G80 ; mesh bed leveling

G1 Z0.2 F720
G1 Y-3 F1000 ; go outside print area
G92 E0
G1 X60 E9 F1000 ; intro line
G1 X100 E12.5 F1000 ; intro line

G92 E0
M221 S95

; Don't change E values below. Excessive value can damage the printer.

M907 E538 ; set extruder motor current
G21 ; set units to millimeters
G90 ; use absolute coordinates
M83 ; use relative distances for extrusion
M900 K0.08 ; Filament gcode LA 1.5
M900 K45 ; Filament gcode LA 1.0
M107
;LAYER_CHANGE
;Z:0.2
;HEIGHT:0.2
;BEFORE_LAYER_CHANGE
G92 E0.0
;0.2


M73 P0 R25
G1 E-1 F2100
G1 Z.2 F720
;AFTER_LAYER_CHANGE
;0.2
G1 Z.4
G1 X108.015 Y79.645 F10800
G1 Z.2 F720
G1 E1 F2100
M204 S800
;TYPE:Skirt/Brim
;WIDTH:0.42
G1 F1200
G1 X109.06 Y78.769 E.04275
G1 X110 Y78.575 E.03009
G1 X140 Y78.575 E.94063
G1 X141.307 Y78.967 E.04278
G1 X142.183 Y80.012 E.04275
G1 X142.377 Y80.952 E.03009
G1 X142.362 Y95.219 E.44733
G1 X138.562 Y128.815 E1.0601
G1 X138.026 Y130.07 E.04279
G1 X136.888 Y130.823 E.04279
G1 X136.2 Y130.925 E.02181
G1 X113.8 Y130.925 E.70234
G1 X112.493 Y130.533 E.04278
G1 X111.617 Y129.488 E.04275
G1 X111.438 Y128.815 E.02184
G1 X107.638 Y95.219 E1.0601
G1 X107.623 Y80.952 E.44733
G1 X107.997 Y79.702 E.04091
M204 S1000
; printing object Test_Brush.stl id:0 copy 0
;WIPE_START
G1 F8640
G1 X109.06 Y78.769 E-.32658
G1 X110 Y78.575 E-.22162
G1 X111.957 Y78.575 E-.4518
;WIPE_END
G1 Z.4 F720
G1 X134.787 Y94.165 F10800
G1 Z.2 F720
M73 P1 R25
M73 Q1 S26
G1 E1 F2100
M204 S800
;TYPE:Perimeter
;WIDTH:0.419999
G1 F1200
G1 X134.787 Y81.739 E.38961
G1 X139.213 Y81.739 E.13877
G1 X139.213 Y94.898 E.41259
G1 X139.059 Y96.015 E.03535
G1 X138.771 Y96.702 E.02336
G1 X138.637 Y95.996 E.02253
G1 X138.216 Y95.237 E.02721
G1 X137.581 Y94.645 E.02722
G1 X136.963 Y94.331 E.02173
G1 X136.655 Y94.255 E.00995
G1 X136.04 Y94.165 E.01949
G1 X134.847 Y94.165 E.03741
M204 S1000
G1 X134.57 Y94.542 F10800
M204 S800
;TYPE:External perimeter
G1 F1200
G1 X134.454 Y94.514 E.00374
G1 X134.41 Y94.42 E.00325
G1 X134.41 Y81.522 E.40441
G1 X134.439 Y81.406 E.00375
G1 X134.532 Y81.362 E.00323
G1 X139.59 Y81.362 E.15859
G1 X139.59 Y83.952 E.08121
G1 X139.59 Y94.924 E.34402
G1 X139.446 Y95.974 E.03323
G1 X139.325 Y96.355 E.01253
G1 X138.96 Y97.213 E.02924
;WIDTH:0.422003
G1 X138.181 Y98.498 E.04737
;WIDTH:0.419784
G1 X137.005 Y100.085 E.0619
;WIDTH:0.435225
G1 X136.462 Y100.944 E.03315
G1 X136.209 Y101.423 E.01767
;WIDTH:0.451286
G1 X136.034 Y101.975 E.01966
G1 X135.847 Y102.693 E.02519
;WIDTH:0.430717
G1 X135.795 Y103.1 E.01323
G1 X135.788 Y104.032 E.03005
;WIDTH:0.425521
G1 X135.789 Y127.737 E.75414
;WIDTH:0.421528
G1 X135.411 Y127.737 E.0119
;WIDTH:0.425521
G1 X135.405 Y104.032 E.75414
;WIDTH:0.430717
G1 X135.407 Y103.098 E.03012
G1 X135.485 Y102.609 E.01597
;WIDTH:0.451286
G1 X135.649 Y101.839 E.02673
G1 X135.892 Y101.219 E.02261
;WIDTH:0.434179
G1 X136.145 Y100.713 E.0184
G1 X136.826 Y99.689 E.04001
;WIDTH:0.419784
G1 X137.88 Y98.276 E.05524
;WIDTH:0.421255
G1 X137.925 Y98.207 E.00259
;WIDTH:0.42997
G1 X138.252 Y97.649 E.02081
G1 X138.42 Y96.912 E.02433
;WIDTH:0.419999
G1 X138.302 Y96.169 E.02359
G1 X137.95 Y95.504 E.02359
G1 X137.411 Y94.981 E.02355
G1 X136.793 Y94.668 E.02172
G1 X136.596 Y94.628 E.0063
G1 X136.04 Y94.542 E.01764
G1 X134.63 Y94.542 E.04421
M204 S1000
G1 X134.529 Y94.429 F10800
;WIPE_START
G1 F8640
G1 X134.454 Y94.514 E-.04115
G1 X134.41 Y94.42 E-.02396
G1 X134.41 Y90.371 E-.93489
;WIPE_END
G1 Z.4 F720
G1 X139.043 Y82.684 F10800
G1 Z.2 F720
M73 Q1 S25
G1 E1 F2100
M204 S800
;TYPE:Solid infill
;WIDTH:0.425898
G1 F1200
G1 X138.438 Y82.078 E.02727
G1 X137.897 Y82.078 E.01723
G1 X138.874 Y83.056 E.04402
G1 X138.874 Y83.597 E.01723
G1 X137.355 Y82.078 E.06841
G1 X136.813 Y82.078 E.01726
G1 X138.874 Y84.139 E.09282
G1 X138.874 Y84.68 E.01723
G1 X136.272 Y82.078 E.11718
G1 X135.73 Y82.078 E.01726
G1 X138.874 Y85.222 E.14159
G1 X138.874 Y85.764 E.01726
G1 X135.188 Y82.078 E.166
G1 X135.126 Y82.078 E.00197
G1 X135.126 Y82.558 E.01529
G1 X138.874 Y86.305 E.16877
G1 X138.874 Y86.847 E.01726
G1 X135.126 Y83.1 E.16877
G1 X135.126 Y83.641 E.01723
G1 X138.874 Y87.388 E.16877
G1 X138.874 Y87.93 E.01726
G1 X135.126 Y84.183 E.16877
G1 X135.126 Y84.725 E.01726
G1 X138.874 Y88.472 E.16877
G1 X138.874 Y89.013 E.01723
G1 X135.126 Y85.266 E.16877
G1 X135.126 Y85.808 E.01726
G1 X138.874 Y89.555 E.16877
G1 X138.874 Y90.096 E.01723
G1 X135.126 Y86.349 E.16877
G1 X135.126 Y86.891 E.01726
G1 X138.874 Y90.638 E.16877
G1 X138.874 Y91.18 E.01726
G1 X135.126 Y87.433 E.16877
G1 X135.126 Y87.974 E.01723
G1 X138.874 Y91.721 E.16877
G1 X138.874 Y92.263 E.01726
G1 X135.126 Y88.516 E.16877
G1 X135.126 Y89.057 E.01723
G1 X138.874 Y92.805 E.16879
G1 X138.874 Y93.346 E.01723
G1 X135.126 Y89.599 E.16877
G1 X135.126 Y90.141 E.01726
G1 X138.874 Y93.888 E.16877
G1 X138.874 Y94.429 E.01723
G1 X135.126 Y90.682 E.16877
G1 X135.126 Y91.224 E.01726
G1 X138.862 Y94.959 E.16823
G1 X138.797 Y95.436 E.01533
G1 X135.126 Y91.765 E.16532
G1 X135.126 Y92.307 E.01726
G1 X136.746 Y93.927 E.07296
G1 X136.112 Y93.835 E.0204
G1 X135.126 Y92.849 E.0444
G1 X135.126 Y93.39 E.01723
G1 X135.731 Y93.995 E.02725
M204 S1000
;WIPE_START
G1 F8640
G1 X135.126 Y93.39 E-.19756
G1 X135.126 Y92.849 E-.12492
G1 X136.112 Y93.835 E-.32197
G1 X136.746 Y93.927 E-.14793
G1 X136.11 Y93.291 E-.20762
;WIPE_END
G1 Z.4 F720
G1 X115.213 Y94.165 F10800
G1 Z.2 F720
G1 E1 F2100
M204 S800
;TYPE:Perimeter
;WIDTH:0.419999
G1 F1200
G1 X113.96 Y94.165 E.03929
G1 X113.037 Y94.331 E.0294
G1 X112.276 Y94.748 E.02721
M73 P2 R25
G1 X111.68 Y95.38 E.02724
G1 X111.363 Y95.996 E.02172
M73 Q2 S25
G1 X111.306 Y96.173 E.00583
G1 X111.229 Y96.702 E.01676
G1 X110.941 Y96.015 E.02336
G1 X110.787 Y94.898 E.03535
G1 X110.787 Y81.739 E.41259
G1 X115.213 Y81.739 E.13877
G1 X115.213 Y94.105 E.38773
M204 S1000
G1 X115.468 Y94.542 F10800
M204 S800
;TYPE:External perimeter
G1 F1200
G1 X113.931 Y94.544 E.04819
G1 X113.207 Y94.668 E.02303
G1 X112.542 Y95.016 E.02353
G1 X112.015 Y95.552 E.02357
G1 X111.68 Y96.228 E.02366
G1 X111.584 Y96.986 E.02396
;WIDTH:0.422005
G1 X111.773 Y97.698 E.02322
G1 X112.12 Y98.275 E.02122
;WIDTH:0.419783
G1 X113.308 Y99.883 E.06265
;WIDTH:0.434985
G1 X113.885 Y100.764 E.03433
G1 X114.131 Y101.293 E.01902
;WIDTH:0.445465
G1 X114.353 Y101.839 E.01973
G1 X114.435 Y102.205 E.01255
;WIDTH:0.431024
G1 X114.592 Y103.098 E.02926
G1 X114.589 Y127.548 E.78903
;WIDTH:0.421615
G1 X114.589 Y127.737 E.00595
G1 X114.211 Y127.737 E.0119
G1 X114.211 Y127.548 E.00595
;WIDTH:0.431024
G1 X114.197 Y103.003 E.79209
;WIDTH:0.445465
G1 X113.976 Y101.979 E.03506
G1 X113.771 Y101.385 E.02103
;WIDTH:0.434179
G1 X113.526 Y100.925 E.01696
G1 X112.869 Y99.91 E.03934
;WIDTH:0.419783
G1 X111.82 Y98.499 E.0551
;WIDTH:0.421256
G1 X111.75 Y98.401 E.00379
;WIDTH:0.429971
G1 X111.023 Y97.184 E.04562
;WIDTH:0.419999
G1 X110.574 Y96.116 E.03633
G1 X110.41 Y94.924 E.03773
G1 X110.41 Y81.362 E.42523
G1 X115.43 Y81.362 E.1574
G1 X115.546 Y81.391 E.00375
G1 X115.59 Y81.494 E.00351
G1 X115.59 Y94.382 E.40409
G1 X115.561 Y94.499 E.00378
G1 X115.522 Y94.517 E.00135
M204 S1000
G1 X115.172 Y94.272 F10800
;WIPE_START
G1 F8640
G1 X113.931 Y94.544 E-.36742
G1 X113.207 Y94.668 E-.16961
G1 X112.542 Y95.016 E-.1733
G1 X112.015 Y95.552 E-.17357
G1 X111.792 Y96.003 E-.1161
;WIPE_END
G1 Z.4 F720
G1 X115.043 Y82.685 F10800
G1 Z.2 F720
G1 E1 F2100
M204 S800
;TYPE:Solid infill
;WIDTH:0.426487
G1 F1200
G1 X114.437 Y82.078 E.02736
G1 X113.894 Y82.078 E.01732
G1 X114.874 Y83.058 E.0442
G1 X114.874 Y83.6 E.01729
G1 X113.352 Y82.078 E.06865
G1 X112.81 Y82.078 E.01729
G1 X114.874 Y84.142 E.0931
G1 X114.874 Y84.685 E.01732
G1 X112.267 Y82.078 E.11759
G1 X111.725 Y82.078 E.01729
G1 X114.874 Y85.227 E.14203
G1 X114.874 Y85.77 E.01732
G1 X111.182 Y82.078 E.16653
G1 X111.126 Y82.078 E.00179
G1 X111.126 Y82.565 E.01553
G1 X114.874 Y86.312 E.16903
G1 X114.874 Y86.855 E.01732
G1 X111.126 Y83.108 E.16903
G1 X111.126 Y83.65 E.01729
G1 X114.874 Y87.397 E.16903
G1 X114.874 Y87.94 E.01732
G1 X111.126 Y84.192 E.16905
G1 X111.126 Y84.735 E.01732
G1 X114.874 Y88.482 E.16903
G1 X114.874 Y89.024 E.01729
G1 X111.126 Y85.277 E.16903
G1 X111.126 Y85.82 E.01732
G1 X114.874 Y89.567 E.16903
G1 X114.874 Y90.109 E.01729
G1 X111.126 Y86.362 E.16903
G1 X111.126 Y86.905 E.01732
G1 X114.874 Y90.652 E.16903
G1 X114.874 Y91.194 E.01729
G1 X111.126 Y87.447 E.16903
G1 X111.126 Y87.99 E.01732
G1 X114.874 Y91.737 E.16903
G1 X114.874 Y92.279 E.01729
G1 X111.126 Y88.532 E.16903
G1 X111.126 Y89.074 E.01729
G1 X114.874 Y92.822 E.16905
G1 X114.874 Y93.364 E.01729
G1 X111.126 Y89.617 E.16903
G1 X111.126 Y90.159 E.01729
G1 X114.793 Y93.826 E.1654
G1 X114.25 Y93.826 E.01732
G1 X111.126 Y90.702 E.14091
G1 X111.126 Y91.244 E.01729
G1 X113.739 Y93.856 E.11784
G1 X113.265 Y93.925 E.01528
G1 X111.126 Y91.787 E.09646
G1 X111.126 Y92.329 E.01729
G1 X112.845 Y94.048 E.07753
G1 X112.485 Y94.231 E.01288
G1 X111.126 Y92.872 E.0613
G1 X111.126 Y93.414 E.01729
G1 X112.142 Y94.429 E.0458
G1 X112.045 Y94.499 E.00382
G1 X111.857 Y94.687 E.00848
G1 X111.126 Y93.957 E.03295
G1 X111.126 Y94.499 E.01729
G1 X111.585 Y94.957 E.02068
G1 X111.519 Y95.023 E.00298
G1 X111.355 Y95.27 E.00946
G1 X110.957 Y94.872 E.01795
M204 S1000
; stop printing object Test_Brush.stl id:0 copy 0
;LAYER_CHANGE
;Z:0.4
;HEIGHT:0.2
;BEFORE_LAYER_CHANGE
G92 E0.0
;0.4


;WIPE_START
G1 F8640
G1 X111.355 Y95.27 E-.12997
G1 X111.519 Y95.023 E-.06846
G1 X111.585 Y94.957 E-.02155
G1 X111.126 Y94.499 E-.14972
G1 X111.126 Y93.957 E-.12515
G1 X111.857 Y94.687 E-.23854
G1 X112.045 Y94.499 E-.06139
G1 X112.142 Y94.429 E-.02762
G1 X111.598 Y93.885 E-.1776
;WIPE_END
G1 Z.4 F720
;AFTER_LAYER_CHANGE
;0.4
M104 S250 ; set temperature
M140 S90 ; set bed temperature
G1 Z.6
G1 X107.637 Y93.89 F10800
G1 Z.4 F720
G1 E1 F2100
;TYPE:Skirt/Brim
;WIDTH:0.42
G1 F3000
G1 X107.623 Y80.952 E.40566
G1 X108.015 Y79.645 E.04278
G1 X109.06 Y78.769 E.04275
G1 X110 Y78.575 E.03009
M73 P3 R25
G1 X140 Y78.575 E.94063
G1 X141.307 Y78.967 E.04278
M73 Q3 S25
G1 X142.183 Y80.012 E.04275
G1 X142.377 Y80.952 E.03009
G1 X142.362 Y95.219 E.44733
G1 X138.562 Y128.815 E1.0601
G1 X138.026 Y130.07 E.04279
G1 X136.888 Y130.823 E.04279
G1 X136.2 Y130.925 E.02181
G1 X113.8 Y130.925 E.70234
G1 X112.493 Y130.533 E.04278
G1 X111.617 Y129.488 E.04275
G1 X111.438 Y128.815 E.02184
G1 X107.638 Y95.219 E1.0601
G1 X107.637 Y93.95 E.03979
; printing object Test_Brush.stl id:0 copy 0
;WIPE_START
G1 F8640
G1 X107.632 Y89.619 E-1
;WIPE_END
G1 Z.6 F720
G1 X134.936 Y94.32 F10800
G1 Z.4 F720
G1 E1 F2100
M204 S800
;TYPE:Perimeter
;WIDTH:0.449999
G1 F1500
G1 X134.632 Y94.32 E.01029
G1 X134.632 Y81.584 E.4311
G1 X139.368 Y81.584 E.16031
G1 X139.368 Y94.909 E.45103
G1 X139.21 Y96.055 E.03916
G1 X138.783 Y97.046 E.03653
G1 X138.608 Y97.297 E.01036
G1 X138.647 Y96.841 E.01549
G1 X138.485 Y96.038 E.02773
G1 X138.084 Y95.325 E.02769
G1 X137.483 Y94.769 E.02771
G1 X136.921 Y94.484 E.02133
G1 X136.631 Y94.408 E.01015
G1 X136.024 Y94.32 E.02076
G1 X134.996 Y94.32 E.0348
M204 S1000
G1 X134.936 Y94.727 F10800
M204 S800
;TYPE:External perimeter
G1 F2099.991

G1 X134.592 Y94.727 E.01164
G1 X134.345 Y94.666 E.00861
G1 F2100
G1 X134.285 Y94.583 E.00347
G1 F2099.995
G1 X134.225 Y94.434 E.00544
G1 X134.225 Y93.984 E.01523
G1 X134.225 Y81.994 E.40585
G1 X134.225 Y81.544 E.01523
G1 X134.286 Y81.297 E.00861
G1 F2100
G1 X134.369 Y81.237 E.00347
G1 F2099.996
G1 X134.518 Y81.177 E.00544
G1 X134.968 Y81.177 E.01523
G1 X139.325 Y81.177 E.14748
G1 X139.775 Y81.177 E.01523
G1 X139.775 Y83.952 E.09393


G1 X139.775 Y84.402 E.01523
G1 X139.775 Y94.487 E.34136
G1 X139.775 Y94.937 E.01523
G1 X139.621 Y96.06 E.03837
G1 X139.483 Y96.45 E.014
G1 X139.095 Y97.312 E.032
G1 F2100

;WIDTH:0.496416
G1 F1987.802

G1 X138.848 Y97.621 E.01492
G1 F2100

;WIDTH:0.542832
G1 F1997.396

G1 X138.601 Y97.93 E.01644
G1 X137.997 Y98.825 E.04488

;WIDTH:0.496692
G1 F2083.913

G1 X137.045 Y100.087 E.05965

;WIDTH:0.492168
G1 F2094.795

G1 X137.026 Y100.114 E.00123
G1 F2100

;WIDTH:0.527262
G1 F2020.152

G1 X136.768 Y100.55 E.0204
G1 F2099.998

;WIDTH:0.562356
G1 F2025.112

G1 X136.51 Y100.985 E.02184
G1 F2073.145
G1 X136.265 Y101.462 E.02316

;WIDTH:0.549746
G1 F1991.133

G1 X136.221 Y101.743 E.01199

;WIDTH:0.499873
G1 F1980.278

G1 X136.176 Y102.024 E.01081

;WIDTH:0.449999
G1 F2100

G1 X136.002 Y102.724 E.02442
G1 X135.975 Y103.044 E.01087
G1 F2099.845
G1 X135.975 Y103.494 E.01523
G1 X135.975 Y127.473 E.81166
G1 F1266.664
G1 X135.975 Y128.123 E.022
G1 X135.225 Y128.123 E.02539
G1 X135.225 Y127.473 E.022
G1 F2100
G1 X135.225 Y103.519 E.81081
G1 X135.225 Y103.069 E.01523
G1 F2099.998
G1 X135.488 Y101.774 E.04473

;WIDTH:0.483562
G1 F2016.709

G1 X135.604 Y101.572 E.00853
G1 F2100

;WIDTH:0.517125
G1 F2022.117

G1 X135.721 Y101.371 E.00917
G1 F2100

;WIDTH:0.550688
G1 F2026.864

G1 X135.837 Y101.169 E.00983
G1 F2100

;WIDTH:0.562356
G1 F2075.103

G1 X136.074 Y100.705 E.0225
G1 F2032.722
G1 X136.361 Y100.289 E.02183

;WIDTH:0.527262
G1 F2035.616

G1 X136.649 Y99.873 E.02038

;WIDTH:0.492168
G1 F2100
G1 X136.685 Y99.822 E.00233
;WIDTH:0.496692
G1 F2095.602

G1 X137.871 Y98.226 E.07503

;WIDTH:0.542832
G1 F1993.978

G1 X138.173 Y97.674 E.02616
G1 F2017.202
G1 X138.178 Y97.597 E.00321

;WIDTH:0.505327
G1 F2010.836

G1 X138.212 Y97.252 E.01333

;WIDTH:0.477663
G1 F2030.627

G1 X138.245 Y96.907 E.01253

;WIDTH:0.449999
G1 F2100

G1 X138.123 Y96.225 E.02345
G1 X137.797 Y95.613 E.02347
G1 X137.299 Y95.132 E.02344
G1 X136.737 Y94.847 E.02133
G1 F2099.988
G1 X136.568 Y94.81 E.00586
G1 X136.024 Y94.727 E.01863
G1 X134.996 Y94.727 E.0348

M204 S1000
G1 X134.769 Y94.426 F10800
;WIPE_START
G1 F8640
G1 X134.592 Y94.727 E-.09328
G1 X134.345 Y94.666 E-.05875
G1 X134.285 Y94.583 E-.02365
G1 X134.225 Y94.434 E-.03709
G1 X134.225 Y91.025 E-.78723
;WIPE_END
G1 Z.6 F720
G1 X135.6 Y127.748 F10800
G1 Z.4 F720
G1 E1 F2100
M204 S800
;TYPE:Perimeter
;WIDTH:0.385842
G1 F3600
G1 X135.6 Y103.105 E.70267
G1 X135.632 Y102.872 E.00671
;WIDTH:0.359698
G1 X135.663 Y102.639 E.00619
;WIDTH:0.372412
G1 X135.819 Y101.935 E.01976
M204 S1000
;WIPE_START
G1 F8640
G1 X135.663 Y102.639 E-.1665
G1 X135.632 Y102.872 E-.05427
G1 X135.6 Y103.105 E-.05431
G1 X135.6 Y106.245 E-.72492
;WIPE_END
G1 Z.6 F720
G1 X135.739 Y94.139 F10800
G1 Z.4 F720
G1 E1 F2100
;TYPE:Top solid infill
;WIDTH:0.412727
G1 F3000
G1 X136.452 Y93.426 E.03101
G1 X136.452 Y92.903 F10800
G1 F3000
G1 X135.216 Y94.139 E.05375
G1 X134.813 Y94.019 F10800
G1 F3000
G1 X136.452 Y92.38 E.07127
G1 X136.452 Y91.857 F10800
G1 F3000
G1 X134.813 Y93.496 E.07127
G1 X134.813 Y92.973 F10800
G1 F3000
G1 X136.452 Y91.334 E.07127
G1 X136.452 Y90.811 F10800
G1 F3000
G1 X134.813 Y92.45 E.07127
G1 X134.813 Y91.927 F10800
G1 F3000
G1 X136.452 Y90.288 E.07127
G1 X136.452 Y89.765 F10800
G1 F3000
G1 X134.813 Y91.404 E.07127
G1 X134.813 Y90.881 F10800
G1 F3000
G1 X136.452 Y89.242 E.07127
G1 X136.452 Y88.719 F10800
G1 F3000
G1 X134.813 Y90.358 E.07127
G1 X134.813 Y89.835 F10800
G1 F3000
G1 X136.452 Y88.196 E.07127
G1 X136.452 Y87.673 F10800
G1 F3000
G1 X134.813 Y89.312 E.07127
G1 X134.813 Y88.789 F10800
G1 F3000
